src/images_karasa_jaga_svg/cmd/lc_calloutshapes.cloud-callout.svg

<svg height="24" viewBox="0 0 24 24" width="24" xmlns="http://www.w3.org/2000/svg" xmlns:xlink="http://www.w3.org/1999/xlink"><linearGradient id="a" gradientUnits="userSpaceOnUse" x1="72" x2="72" y1="128" y2="0"><stop offset="0" stop-color="#fff"/><stop offset=".59375" stop-color="#fff"/><stop offset=".84375" stop-color="#f1f1f1"/><stop offset=".90625" stop-color="#eaeaea"/><stop offset="1" stop-color="#dfdfdf"/></linearGradient><linearGradient id="b" gradientUnits="userSpaceOnUse" x1="4.269097" x2="122.15066" y1="62.850616" y2="62.850616"><stop offset="0" stop-color="#7c9fcf"/><stop offset=".5" stop-color="#7c9ece"/><stop offset="1" stop-color="#7b9dcf"/></linearGradient><g transform="matrix(.171875 0 0 .171875 1.00031 1)"><path d="m89.261719-.9609375c-2.890284.004972-5.693562.75254419-8.230469 2.0566406-1.803747-.80445273-3.713687-1.3473473-5.71875-1.34960935a5.570901 5.570901 0 0 0 -.0098 0c-4.472401.00330349-8.415382 2.21302185-11.251919 5.51757815-3.280178-.7759876-6.75323-.7349012-10.101562.2285156a5.570901 5.570901 0 0 0 -.0078.00195c-1.854365.5364048-3.56579 1.390266-5.1797 2.4023469-2.663605-1.1406057-5.437958-1.9916614-8.335938-2.1542969a5.570901 5.570901 0 0 0 -.01172 0c-4.980814-.2697779-9.671824 1.0144383-13.277343 3.8027344-2.807591 2.1712251-4.830702 5.3951231-5.564453 9.0058591-4.107923 3.299172-6.558727 8.420061-5.863282 13.728516a5.570901 5.570901 0 0 0 0 .0039c.0085.06472.04148.122951.05078.1875-2.333494.731511-4.466663 1.87418-6.2734379 3.433594-3.6581039 3.157282-5.768134 8.207132-5.0917969 13.349609a5.570901 5.570901 0 0 0 .00195.0039c.4720715 3.5641 2.1450881 6.73365 4.4804687 9.445313-4.5584863 6.708837-5.0827784 15.4204-.00586 21.859375a5.570901 5.570901 0 0 0 .011719.01367c2.6514225 3.341028 6.3484555 5.655785 10.5156255 7.02539.526515 1.006541 1.141822 1.968969 1.849609 2.865235a5.570901 5.570901 0 0 0 .0059.0078c.559108.705041 1.243514 1.27892 1.886719 1.896485-1.037343.838634-2.001452 1.756015-2.785156 2.841797-2.503884 3.469003-3.196609 8.458539-1.298828 12.650389a5.570901 5.570901 0 0 0 .0039.01c.01308.0287.03752.0495.05078.0781-1.422982.74105-2.727486 1.6969-3.71875 3.07031-1.729979 2.39692-2.234182 6.08377-.916016 8.99414 2.635681 5.82012 8.578542 7.43373 14.138672 6.31446 2.780914-.5596 5.345491-1.93336 7.076172-4.33008.827474-1.14592 1.352793-2.59343 1.554688-4.10352 1.481232-.007 2.965759-.0659 4.423828-.35742a5.570901 5.570901 0 0 0 .0078-.002c4.542839-.9148 8.468109-3.12992 10.972657-6.59961 1.656883-2.29538 2.422255-5.25929 2.267578-8.21484 2.677838 1.53638 5.669092 2.55843 8.890625 2.5625a5.570901 5.570901 0 0 0 .0078 0c7.546437-.00022 14.054627-4.72294 16.763672-11.341801 1.55615.432011 3.150586.734214 4.794922.736329a5.570901 5.570901 0 0 0 .0078 0c9.475509-.000274 17.264338-7.453395 17.982418-16.757813 3.08428-.863619 6.03262-2.24801 8.64649-4.208984a5.570901 5.570901 0 0 0 .006-.0039c10.2167386-7.689929 13.5280686-21.861692 6.1170586-31.709125a5.570901 5.570901 0 0 0 -.0156-.02148c-.4792-.630471-1.04941-1.179417-1.59961-1.746094 2.21748-6.630489 1.56716-13.862191-2.625-19.441406a5.570901 5.570901 0 0 0 -.006-.0098c-1.77915-2.358294-4.09384-4.219041-6.69531-5.587891-1.00504-9.0200398-8.651744-16.15544152-17.921766-16.1542665a5.570901 5.570901 0 0 0 -.0098 0z" fill="url(#b)"/><path d="m89.271484 4.609375c-2.964796.0051-5.83207 1.0595738-8.09375 2.9765625-1.720886-1.4749227-3.770343-2.2671613-5.871093-2.2695313-3.796611.0028043-7.281168 2.5735763-9.056641 6.6816408-2.988556-1.815241-6.972866-2.2419503-10.759766-1.152344-2.31533.669747-4.42407 1.869897-6.074218 3.457031-2.790676-1.762849-6.058454-2.815975-9.302735-2.998046-7.658343-.414802-13.423747 4.043822-13.304687 10.289062-4.02066 2.001013-6.126356 5.76324-5.576172 9.962891.252119 1.913879 1.046229 3.830581 2.318359 5.595703-.136168-.01454-.272249-.02757-.408203-.03906-8.191258-.445915-14.1123097 4.664501-13.2246092 11.414063.4863762 3.672098 2.9505662 7.257223 6.7109372 9.763672-6.500206 5.319179-7.897868 13.095892-3.382812 18.822265 2.308176 2.908507 5.934671 4.990372 10.24414 5.88086.439479 1.434098 1.156973 2.788778 2.128907 4.019531 2.63297 3.320201 6.968076 5.546508 12.033203 6.179687l-.339844.605466c-1.653508-.132972-3.312063-.0395-4.886719.275391-6.831707 1.376842-10.545211 6.521711-8.294922 11.492191.670515 1.47341 1.828116 2.8235 3.371094 3.93164-.297475.96399-.559484 1.79366-.835937 2.60547-1.034309-.17006-2.099113-.15398-3.097657.0469-3.309248.6667-5.107993 3.15889-4.017578 5.56641 1.090117 2.4072 4.655861 3.81845 7.964844 3.15234 3.310079-.66608 5.109839-3.15847 4.019531-5.56641-.214878-.46815-.532101-.912-.939453-1.31445l1.878906-2.1914c2.632506.70774 5.471079.80557 8.103516.27929 6.83396-1.37616 10.548833-6.52258 8.296875-11.49414-.621716-1.364024-1.661606-2.623648-3.041016-3.683592l6.146485-5.603516c1.755549 5.036378 6.502363 8.413196 11.835937 8.419922 6.931522-.0002 12.550582-5.619259 12.550782-12.550782-.000413-.695025-.05855-1.388818-.173829-2.074218 2.371406 2.558746 5.700796 4.015044 9.189453 4.019531 6.931523-.0002 12.550581-5.619259 12.550782-12.550781-.0019-1.092229-.146337-2.179539-.429688-3.234375 3.931974-.158484 7.864124-1.590734 11.164064-4.066407 8.11231-6.105777 10.35785-16.809683 5.01562-23.908203-1.03984-1.368083-2.32369-2.537197-3.80273-3.46289 3.4227-5.948882 3.25216-12.836949-.43945-17.75-1.89526-2.512192-4.59117-4.334137-7.75391-5.240235.0857-.574912.13141-1.155084.13672-1.736328-.0002-6.932285-5.620451-12.5516597-12.552736-12.550781z" fill="url(#a)"/></g></svg>

<?xml version="1.0" encoding="UTF-8" standalone="no"?>
<!-- Created with Inkscape (http://www.inkscape.org/) -->

<svg
   xmlns:dc="http://purl.org/dc/elements/1.1/"
   xmlns:cc="http://creativecommons.org/ns#"
   xmlns:rdf="http://www.w3.org/1999/02/22-rdf-syntax-ns#"
   xmlns:svg="http://www.w3.org/2000/svg"
   xmlns="http://www.w3.org/2000/svg"
   xmlns:xlink="http://www.w3.org/1999/xlink"
   xmlns:sodipodi="http://sodipodi.sourceforge.net/DTD/sodipodi-0.dtd"
   xmlns:inkscape="http://www.inkscape.org/namespaces/inkscape"
   version="1.1"
   id="svg2"
   width="128"
   height="128"
   viewBox="0 0 128 128"
   sodipodi:docname="lc_calloutshapes.cloud-callout.svg"
   inkscape:export-filename="/home/rizmut/Dokumen/Rizmut/Github/libreoffice-style-karasa-jaga/build/images_karasa_jaga/cmd/lc_calloutshapes.cloud-callout.png"
   inkscape:export-xdpi="16.5"
   inkscape:export-ydpi="16.5"
   inkscape:version="0.92.3 (unknown)">
  <metadata
     id="metadata8">
    <rdf:RDF>
      <cc:Work
         rdf:about="">
        <dc:format>image/svg+xml</dc:format>
        <dc:type
           rdf:resource="http://purl.org/dc/dcmitype/StillImage" />
        <dc:title></dc:title>
      </cc:Work>
    </rdf:RDF>
  </metadata>
  <defs
     id="defs6">
    <linearGradient
       inkscape:collect="always"
       id="linearGradient825">
      <stop
         style="stop-color:#f9f9fa;stop-opacity:1;"
         offset="0"
         id="stop821" />
      <stop
         style="stop-color:#f9f9fa;stop-opacity:0;"
         offset="1"
         id="stop823" />
    </linearGradient>
    <linearGradient
       inkscape:collect="always"
       xlink:href="#linearGradient825"
       id="linearGradient1536"
       x1="70.052383"
       y1="-18.468208"
       x2="62.030193"
       y2="84.412926"
       gradientUnits="userSpaceOnUse" />
    <linearGradient
       id="linearGradient3369">
      <stop
         id="stop3372"
         offset="0"
         style="stop-color:#ffffff;stop-opacity:1;" />
      <stop
         style="stop-color:#ffffff;stop-opacity:1;"
         offset="0.59375"
         id="stop3374" />
      <stop
         style="stop-color:#f1f1f1;stop-opacity:1;"
         offset="0.84375"
         id="stop3376" />
      <stop
         id="stop3378"
         offset="0.90625"
         style="stop-color:#eaeaea;stop-opacity:1;" />
      <stop
         id="stop3384"
         offset="1"
         style="stop-color:#dfdfdf;stop-opacity:1;" />
    </linearGradient>
    <linearGradient
       id="linearGradient7422">
      <stop
         style="stop-color:#7c9fcf;stop-opacity:1"
         offset="0"
         id="stop7424" />
      <stop
         id="stop5348"
         offset="0.5"
         style="stop-color:#7c9ece;stop-opacity:1" />
      <stop
         id="stop7426"
         offset="1"
         style="stop-color:#7b9dcf;stop-opacity:1" />
    </linearGradient>
    <linearGradient
       inkscape:collect="always"
       xlink:href="#linearGradient3369"
       id="linearGradient8528"
       x1="72"
       y1="128"
       x2="72"
       y2="0"
       gradientUnits="userSpaceOnUse" />
    <linearGradient
       inkscape:collect="always"
       xlink:href="#linearGradient7422"
       id="linearGradient1003"
       x1="4.2690969"
       y1="62.850616"
       x2="122.15066"
       y2="62.850616"
       gradientUnits="userSpaceOnUse" />
  </defs>
  <sodipodi:namedview
     pagecolor="#ffffff"
     bordercolor="#666666"
     borderopacity="1"
     objecttolerance="10"
     gridtolerance="10"
     guidetolerance="10"
     inkscape:pageopacity="0"
     inkscape:pageshadow="2"
     inkscape:window-width="1366"
     inkscape:window-height="706"
     id="namedview4"
     showgrid="true"
     inkscape:snap-page="true"
     inkscape:snap-global="false"
     inkscape:zoom="2.8284272"
     inkscape:cx="68.005488"
     inkscape:cy="83.669297"
     inkscape:window-x="-1"
     inkscape:window-y="-1"
     inkscape:window-maximized="0"
     inkscape:current-layer="svg2"
     inkscape:snap-smooth-nodes="true">
    <inkscape:grid
       type="xygrid"
       id="grid27"
       spacingx="5.8181"
       spacingy="5.8181"
       empspacing="1" />
  </sodipodi:namedview>
  <path
     id="circle1528"
     style="opacity:1;fill:url(#linearGradient1536);fill-opacity:1;stroke:none;stroke-width:3.85701394;stroke-linecap:round;stroke-linejoin:bevel;stroke-miterlimit:4;stroke-dasharray:none;stroke-dashoffset:0;stroke-opacity:0.73039216"
     r="42.122112"
     cy="64"
     cx="64" />
  <path
     sodipodi:type="inkscape:offset"
     inkscape:radius="5.570344"
     inkscape:original="M 89.271484 4.609375 C 86.306688 4.614475 83.439414 5.6689488 81.177734 7.5859375 C 79.456848 6.1110148 77.407391 5.3187762 75.306641 5.3164062 C 71.51003 5.3192105 68.025473 7.8899824 66.25 11.998047 C 63.261444 10.182806 59.277134 9.7560968 55.490234 10.845703 C 53.174904 11.51545 51.066164 12.7156 49.416016 14.302734 C 46.62534 12.539885 43.357562 11.486758 40.113281 11.304688 C 32.454938 10.889886 26.689534 15.34851 26.808594 21.59375 C 22.787934 23.594763 20.682238 27.35699 21.232422 31.556641 C 21.484541 33.47052 22.278651 35.387222 23.550781 37.152344 C 23.414613 37.137804 23.278532 37.124771 23.142578 37.113281 C 14.95132 36.667366 9.0302683 41.777782 9.9179688 48.527344 C 10.404345 52.199442 12.868535 55.784567 16.628906 58.291016 C 10.1287 63.610195 8.7310377 71.386908 13.246094 77.113281 C 15.55427 80.021788 19.180765 82.103653 23.490234 82.994141 C 23.929713 84.428239 24.647207 85.782919 25.619141 87.013672 C 28.252111 90.333873 32.587217 92.56018 37.652344 93.193359 L 37.3125 93.798828 C 35.658992 93.665856 34.000437 93.759328 32.425781 94.074219 C 25.594074 95.451061 21.88057 100.59593 24.130859 105.56641 C 24.801374 107.03982 25.958975 108.38991 27.501953 109.49805 C 27.204478 110.46204 26.942469 111.29171 26.666016 112.10352 C 25.631707 111.93346 24.566903 111.94951 23.568359 112.15039 C 20.259111 112.81709 18.460366 115.30928 19.550781 117.7168 C 20.640898 120.124 24.206642 121.53525 27.515625 120.86914 C 30.825704 120.20306 32.625464 117.71067 31.535156 115.30273 C 31.320278 114.83458 31.003055 114.39073 30.595703 113.98828 L 32.474609 111.79688 C 35.107115 112.50462 37.945688 112.60245 40.578125 112.07617 C 47.412085 110.70001 51.126958 105.55359 48.875 100.58203 C 48.253284 99.218007 47.213394 97.958382 45.833984 96.898438 L 51.980469 91.294922 C 53.736018 96.3313 58.482832 99.708118 63.816406 99.714844 C 70.747928 99.714644 76.366988 94.095585 76.367188 87.164062 C 76.366775 86.469037 76.308638 85.775244 76.193359 85.089844 C 78.564765 87.64859 81.894155 89.104888 85.382812 89.109375 C 92.314335 89.109175 97.933393 83.490116 97.933594 76.558594 C 97.931694 75.466365 97.787257 74.379055 97.503906 73.324219 C 101.43588 73.165735 105.36803 71.733485 108.66797 69.257812 C 116.78028 63.152035 119.02582 52.448129 113.68359 45.349609 C 112.64375 43.981526 111.3599 42.812412 109.88086 41.886719 C 113.30356 35.937837 113.13302 29.04977 109.44141 24.136719 C 107.54615 21.624527 104.85024 19.802582 101.6875 18.896484 C 101.7732 18.321572 101.81891 17.7414 101.82422 17.160156 C 101.82402 10.227871 96.203769 4.6084963 89.271484 4.609375 z "
     style="opacity:1;fill:url(#linearGradient1003);fill-opacity:1.0;stroke:none;stroke-width:5.29160166;stroke-linecap:square;stroke-linejoin:bevel;stroke-miterlimit:4;stroke-dasharray:none;stroke-dashoffset:0;stroke-opacity:0.73039216"
     id="path993"
     d="m 89.261719,-0.9609375 c -2.890284,0.004972 -5.693562,0.75254419 -8.230469,2.0566406 -1.803747,-0.80445273 -3.713687,-1.3473473 -5.71875,-1.34960935 a 5.570901,5.570901 0 0 0 -0.0098,0 C 70.830299,-0.25060276 66.887318,1.9591156 64.050781,5.2636719 60.770603,4.4876843 57.297551,4.5287707 53.949219,5.4921875 a 5.570901,5.570901 0 0 0 -0.0078,0.00195 C 52.087054,6.0305423 50.375629,6.8844035 48.761719,7.8964844 46.098114,6.7558787 43.323761,5.904823 40.425781,5.7421875 a 5.570901,5.570901 0 0 0 -0.01172,0 c -4.980814,-0.2697779 -9.671824,1.0144383 -13.277343,3.8027344 -2.807591,2.1712251 -4.830702,5.3951231 -5.564453,9.0058591 -4.107923,3.299172 -6.558727,8.420061 -5.863282,13.728516 a 5.570901,5.570901 0 0 0 0,0.0039 c 0.0085,0.06472 0.04148,0.122951 0.05078,0.1875 -2.333494,0.731511 -4.466663,1.87418 -6.2734379,3.433594 -3.6581039,3.157282 -5.768134,8.207132 -5.0917969,13.349609 a 5.570901,5.570901 0 0 0 0.00195,0.0039 c 0.4720715,3.5641 2.1450881,6.73365 4.4804687,9.445313 -4.5584863,6.708837 -5.0827784,15.4204 -0.00586,21.859375 a 5.570901,5.570901 0 0 0 0.011719,0.01367 c 2.6514225,3.341028 6.3484555,5.655785 10.5156255,7.02539 0.526515,1.006541 1.141822,1.968969 1.849609,2.865235 a 5.570901,5.570901 0 0 0 0.0059,0.0078 c 0.559108,0.705041 1.243514,1.27892 1.886719,1.896485 -1.037343,0.838634 -2.001452,1.756015 -2.785156,2.841797 -2.503884,3.469003 -3.196609,8.458539 -1.298828,12.650389 a 5.570901,5.570901 0 0 0 0.0039,0.01 c 0.01308,0.0287 0.03752,0.0495 0.05078,0.0781 -1.422982,0.74105 -2.727486,1.6969 -3.71875,3.07031 -1.729979,2.39692 -2.234182,6.08377 -0.916016,8.99414 2.635681,5.82012 8.578542,7.43373 14.138672,6.31446 2.780914,-0.5596 5.345491,-1.93336 7.076172,-4.33008 0.827474,-1.14592 1.352793,-2.59343 1.554688,-4.10352 1.481232,-0.007 2.965759,-0.0659 4.423828,-0.35742 a 5.570901,5.570901 0 0 0 0.0078,-0.002 c 4.542839,-0.9148 8.468109,-3.12992 10.972657,-6.59961 1.656883,-2.29538 2.422255,-5.25929 2.267578,-8.21484 2.677838,1.53638 5.669092,2.55843 8.890625,2.5625 a 5.570901,5.570901 0 0 0 0.0078,0 c 7.546437,-2.2e-4 14.054627,-4.72294 16.763672,-11.341801 1.55615,0.432011 3.150586,0.734214 4.794922,0.736329 a 5.570901,5.570901 0 0 0 0.0078,0 c 9.475509,-2.74e-4 17.264338,-7.453395 17.982418,-16.757813 3.08428,-0.863619 6.03262,-2.24801 8.64649,-4.208984 a 5.570901,5.570901 0 0 0 0.006,-0.0039 C 122.23445,66.019196 125.54578,51.847433 118.13477,42 a 5.570901,5.570901 0 0 0 -0.0156,-0.02148 c -0.4792,-0.630471 -1.04941,-1.179417 -1.59961,-1.746094 2.21748,-6.630489 1.56716,-13.862191 -2.625,-19.441406 a 5.570901,5.570901 0 0 0 -0.006,-0.0098 c -1.77915,-2.358294 -4.09384,-4.219041 -6.69531,-5.587891 C 106.18821,6.1732892 98.541506,-0.96211252 89.271484,-0.9609375 a 5.570901,5.570901 0 0 0 -0.0098,0 z" />
  <path
     style="opacity:1;fill:url(#linearGradient8528);fill-opacity:1;stroke:none;stroke-width:5.29160166;stroke-linecap:square;stroke-linejoin:bevel;stroke-miterlimit:4;stroke-dasharray:none;stroke-dashoffset:0;stroke-opacity:0.73039216"
     d="M 89.271484 4.609375 C 86.306688 4.614475 83.439414 5.6689488 81.177734 7.5859375 C 79.456848 6.1110148 77.407391 5.3187762 75.306641 5.3164062 C 71.51003 5.3192105 68.025473 7.8899825 66.25 11.998047 C 63.261444 10.182806 59.277134 9.7560967 55.490234 10.845703 C 53.174904 11.51545 51.066164 12.7156 49.416016 14.302734 C 46.62534 12.539885 43.357562 11.486759 40.113281 11.304688 C 32.454938 10.889886 26.689534 15.34851 26.808594 21.59375 C 22.787934 23.594763 20.682238 27.35699 21.232422 31.556641 C 21.484541 33.47052 22.278651 35.387222 23.550781 37.152344 C 23.414613 37.137804 23.278532 37.124771 23.142578 37.113281 C 14.95132 36.667366 9.0302683 41.777782 9.9179688 48.527344 C 10.404345 52.199442 12.868535 55.784567 16.628906 58.291016 C 10.1287 63.610195 8.731038 71.386908 13.246094 77.113281 C 15.55427 80.021788 19.180765 82.103653 23.490234 82.994141 C 23.929713 84.428239 24.647207 85.782919 25.619141 87.013672 C 28.252111 90.333873 32.587217 92.56018 37.652344 93.193359 L 37.3125 93.798828 C 35.658992 93.665856 34.000437 93.759328 32.425781 94.074219 C 25.594074 95.451061 21.88057 100.59593 24.130859 105.56641 C 24.801374 107.03982 25.958975 108.38991 27.501953 109.49805 C 27.204478 110.46204 26.942469 111.29171 26.666016 112.10352 C 25.631707 111.93346 24.566903 111.94954 23.568359 112.15039 C 20.259111 112.81709 18.460366 115.30928 19.550781 117.7168 C 20.640898 120.124 24.206642 121.53525 27.515625 120.86914 C 30.825704 120.20306 32.625464 117.71067 31.535156 115.30273 C 31.320278 114.83458 31.003055 114.39073 30.595703 113.98828 L 32.474609 111.79688 C 35.107115 112.50462 37.945688 112.60245 40.578125 112.07617 C 47.412085 110.70001 51.126958 105.55359 48.875 100.58203 C 48.253284 99.218006 47.213394 97.958382 45.833984 96.898438 L 51.980469 91.294922 C 53.736018 96.3313 58.482832 99.708118 63.816406 99.714844 C 70.747928 99.714644 76.366988 94.095585 76.367188 87.164062 C 76.366775 86.469037 76.308638 85.775244 76.193359 85.089844 C 78.564765 87.64859 81.894155 89.104888 85.382812 89.109375 C 92.314335 89.109175 97.933393 83.490116 97.933594 76.558594 C 97.931694 75.466365 97.787257 74.379055 97.503906 73.324219 C 101.43588 73.165735 105.36803 71.733485 108.66797 69.257812 C 116.78028 63.152035 119.02582 52.448129 113.68359 45.349609 C 112.64375 43.981526 111.3599 42.812412 109.88086 41.886719 C 113.30356 35.937837 113.13302 29.04977 109.44141 24.136719 C 107.54615 21.624527 104.85024 19.802582 101.6875 18.896484 C 101.7732 18.321572 101.81891 17.7414 101.82422 17.160156 C 101.82402 10.227871 96.203769 4.6084963 89.271484 4.609375 z "
     id="rect8502" />
</svg>
